X: 9764
T: Delices De Bretagne
R: waltz
M: 3/4
K: Bminor
|:AB BA B2|de ed eg|ef BA B2|de BA AF|
AB BA B2|de ed eg|f/g/a fe fd|eg fe fc:|
|:cd dc B2|de ed eg|ef BA B2|ce ed cA|
cd dc B2|de ed eg|f/g/a fe fd|eg fe fc:|
|:AB BA B2|de ed eg|ef BA B2|de BA AF|
AB BA B2|de ed eg|f/g/a fe fd|eg fe fc:|
|:d2- dc B2|de ed e/f/g|ef BA B2|de ed cA|
d2- dc B2|de ed eg|f/g/a fe fd|eg fe fc:|
K:Emaj
|:e2- ed c2|ef fe f/g/a|fg cB c2|ef fe dB|
e2- ed c2|ef fe fa|g/a/b gf ge|fa gf gd:|

